X: 2024
T: Yükselen Nağmenle
C: Muzaffer İlkar
O: Turkey
F: http://compmusic.upf.edu/node/140
N: acemkurdi--sarki--kapali_curcuna--yukselen_nagmenle--muzaffer_ilkar
N: makam= acemkurdi
N: form= sarki
N: usul= kapali_curcuna = 10/8
M: 10/8
L: 1/16
K: C _B   
Q: 1/4=200
%%MIDI tuningsystem comma53
z4 e2f4f2 e2f6  | f4 e2f2 e2e2 d2e6  | \
w:   |   | 
z4 d2e4e2 d2e6  | d2e2 f2e2 d2e2 c2d4z2  | 
w:   |   | 
z4 c2d4_e4d4c2  | c2d2 _e2d2 c2B2 A2G6  | \
w:   |   | 
z4 A2B4B2 A2_e4d2  | 
w:   | 
c4 d2c2 B2B2 A2A4z2  | z4 e2f4f2 e2f6  | \
w:   |   | 
f4 e2f2 e2e2 d2e6  | 
w:   | 
z4 d2e4e2 d2e6  | d2e2 f2e2 d2e2 c2d4z2  | \
w:   |   | 
z4 c2d4_e4d4c2  | 
w:   | 
c2d2 _e2d2 c2B2 A2G6  | z4 A2B4B2 A2_e4d2  | \
w:   |   | 
c4 d2c2 B2B2 A2A4z2  | 
w:   | 
f6f4f4a4g2  | g4 a2g2 f2e2 d2c6  | z4 d2e4f4a4g2  | \
w:  Yük se len  nağ  |  men *  le  *  bak   |  so lan  gül ler   | 
a4 g2f2 e2f8z2  | 
w:  renk  al *  *  dı    | 
f2e2 d2c2 B2B2 A2A4z2  | f6f4f4a4g2  | \
w:  SAZ  |  Yük se len  nağ  | 
g4 a2g2 f2e2 d2c6  | 
w:  men *  le  *  bak   | 
z4 d2e4f4a4g2  | a4 g2f2 e2f8z2  | f2e2 d2e2 f2e2 g2f4z2  | 
w:  so lan  gül ler   |  renk  al *  *  dı    |  SAZ  | 
f6f4f2 e2e4d2  | d4 c2c2 e2e8z2  | c6d4_e4d4c2  | \
w:  Göz le rin *  de   |  göz *  le *  rim   |  baş ka  â le  | 
d2c2 B2B2 A2d8-d2  | 
w:  me  *  dal *  *  dı    | 
A6B4c4d4z2  | c2d2 _e2d2 c2B2 A2G4z2  | \
w:  Göz le rin de   |  göz *  *  le *  rim   | 
B6B4B2 A2_e4d2  | c2d2 c2B2 A2A8-A2  | 
w:  baş ka  â *  le  |  me  *  dal *  *  dı    | 
z4 a2a2 g2f2 g2a4z2  | g6a4a2 g2f2 e2d2  | \
w:  SAZ  |  Sor ma  ba *  na   | 
f2e2 d2^c2 _7/8B2A8z2  | 
w:  hiç *  *  bir  *  şey   | 
A6B4G4f4e2  | f2e2 d4 ^c2d8-d2  | z4 ^c2d4e4f6  | \
w:  söy len me dik   |  ne  *  kal *  dı    |  E lin de ki   | 
e2f2 g2a4f2 g2a4z2  | 
w:  mız *  ra *  bın   | 
z4 a2b4b2 a2a4g2  | a2g2 f4 e2f8z2  | \
w:  tu tun du *  ğum   |  tek  *  dal *  dı    | 
f3e d2e2 f2e2 g2f4z2  | 
w:  SAZ  | 
f6f4f2 e2e4d2  | d4 c2c2 e2e8z2  | c6d4_e4d4c2  | \
w:  Göz le rin *  de   |  göz *  le *  rim   |  baş ka  â le  | 
d2c2 B2B2 A2d8-d2  | 
w:  me  *  dal *  *  dı    | 
A6B4c4d4z2  | c2d2 _e2d2 c2B2 A2G4z2  | \
w:  Göz le rin de   |  göz *  *  le *  rim   | 
B6B4B2 A2_e4d2  | c2d2 c2B2 A2A8-A2  | 
w:  baş ka  â *  le  |  me  *  dal *  *  dı    | 
|


